src/assets/filled/CardRemove.svg

<svg width="24" height="24" viewBox="0 0 24 24"  xmlns="http://www.w3.org/2000/svg">
<path d="M18.8999 15.03C16.6899 15.03 14.8999 16.82 14.8999 19.03C14.8999 21.24 16.6899 23.03 18.8999 23.03C21.1099 23.03 22.8999 21.24 22.8999 19.03C22.8999 16.82 21.1099 15.03 18.8999 15.03ZM20.4999 20.68C20.3499 20.83 20.1599 20.9 19.9699 20.9C19.7799 20.9 19.5899 20.83 19.4399 20.68L18.9099 20.15L18.3599 20.7C18.2099 20.85 18.0199 20.92 17.8299 20.92C17.6399 20.92 17.4499 20.85 17.2999 20.7C17.0099 20.41 17.0099 19.93 17.2999 19.64L17.8499 19.09L17.3199 18.56C17.0299 18.27 17.0299 17.79 17.3199 17.5C17.6099 17.21 18.0899 17.21 18.3799 17.5L18.9099 18.03L19.4099 17.53C19.6999 17.24 20.1799 17.24 20.4699 17.53C20.7599 17.82 20.7599 18.3 20.4699 18.59L19.9699 19.09L20.4999 19.62C20.7899 19.91 20.7899 20.39 20.4999 20.68Z" />
<path d="M22 7.55002V8.00002C22 8.55002 21.55 9.00002 21 9.00002H3C2.45 9.00002 2 8.55002 2 8.00002V7.54002C2 5.25002 3.85 3.40002 6.14 3.40002H17.85C20.14 3.40002 22 5.26002 22 7.55002Z" />
<path d="M2 11.5V16.46C2 18.75 3.85 20.6 6.14 20.6H12.4C12.98 20.6 13.48 20.11 13.43 19.53C13.29 18 13.78 16.34 15.14 15.02C15.7 14.47 16.39 14.05 17.14 13.81C18.39 13.41 19.6 13.46 20.67 13.82C21.32 14.04 22 13.57 22 12.88V11.49C22 10.94 21.55 10.49 21 10.49H3C2.45 10.5 2 10.95 2 11.5ZM8 17.25H6C5.59 17.25 5.25 16.91 5.25 16.5C5.25 16.09 5.59 15.75 6 15.75H8C8.41 15.75 8.75 16.09 8.75 16.5C8.75 16.91 8.41 17.25 8 17.25Z" />
</svg>

<?xml version="1.0" encoding="UTF-8"?>
<svg width="24" height="24" viewBox="0 0 24 24" xmlns="http://www.w3.org/2000/svg">
 <path d="m18.9 15.03c-2.21 0-4 1.79-4 4s1.79 4 4 4 4-1.79 4-4-1.79-4-4-4zm1.6 5.65c-0.15 0.15-0.34 0.22-0.53 0.22s-0.38-0.07-0.53-0.22l-0.53-0.53-0.55 0.55c-0.15 0.15-0.34 0.22-0.53 0.22s-0.38-0.07-0.53-0.22c-0.29-0.29-0.29-0.77 0-1.06l0.55-0.55-0.53-0.53c-0.29-0.29-0.29-0.77 0-1.06s0.77-0.29 1.06 0l0.53 0.53 0.5-0.5c0.29-0.29 0.77-0.29 1.06 0s0.29 0.77 0 1.06l-0.5 0.5 0.53 0.53c0.29 0.29 0.29 0.77 0 1.06z"/>
 <path d="m22 7.55v0.45c0 0.55-0.45 1-1 1h-18c-0.55 0-1-0.45-1-1v-0.46c0-2.29 1.85-4.14 4.14-4.14h11.71c2.29 0 4.15 1.86 4.15 4.15z"/>
 <path d="m2 11.5v4.96c0 2.29 1.85 4.14 4.14 4.14h6.26c0.58 0 1.08-0.49 1.03-1.07-0.14-1.53 0.35-3.19 1.71-4.51 0.56-0.55 1.25-0.97 2-1.21 1.25-0.4 2.46-0.35 3.53 0.01 0.65 0.22 1.33-0.25 1.33-0.94v-1.39c0-0.55-0.45-1-1-1h-18c-0.55 0.01-1 0.46-1 1.01zm6 5.75h-2c-0.41 0-0.75-0.34-0.75-0.75s0.34-0.75 0.75-0.75h2c0.41 0 0.75 0.34 0.75 0.75s-0.34 0.75-0.75 0.75z"/>
</svg>
